!!!!SEGMENT: pl-kk--kk-i-487--009_anonim--tobie-nad-pomysl.krn
!!!cenid: 18xx:1364
!!!COM: Anonim
!!!COM-rismid: pe30004985
!!!CDT:
!!!CNT:
!!!OTL: Tobie nad pomysł
!!!PDT:
!!!AGN: Sacred
!!!SMS-siglum: PL-Kk
!!!SMS-shelfmark: Kk.I.487
!!!SMS-shelfwork: 009 W
!!!SMS-variant:
!!!SMS-altvar:
!!!NIFC-rismid: 1001141055
!!!URL-scan: http://repozytorium.nifc.pl/skany/pl-kk-nut--i-487
!!!ONB-nifc:
**kern	**text	**text	**kern	**text	**text	**kern	**text	**text	**kern	**text	**text
*part4	*part4	*part4	*part3	*part3	*part3	*part2	*part2	*part2	*part1	*part1	*part1
*staff4	*staff4	*staff4	*staff3	*staff3	*staff3	*staff2	*staff2	*staff2	*staff1	*staff1	*staff1
*Iempty	*	*	*Itenor	*	*	*Ialto	*	*	*Isoprn	*	*
*I"Bas	*	*	*I"Tenor.	*	*	*I"alt.	*	*	*I"Sopran	*	*
*I'B	*	*	*I'T	*	*	*I'A	*	*	*I'S	*	*
*clefF4	*	*	*clefC4	*	*	*clefC3	*	*	*clefC1	*	*
*k[f#c#g#d#]	*	*	*k[f#c#g#d#]	*	*	*k[f#c#g#d#]	*	*	*k[f#c#g#d#]	*	*
*E:	*	*	*E:	*	*	*E:	*	*	*E:	*	*
*M4/4	*	*	*M4/4	*	*	*M4/4	*	*	*M4/4	*	*
*met(c)	*	*	*met(c)	*	*	*met(c)	*	*	*met(c)	*	*
=1	=1	=1	=1	=1	=1	=1	=1	=1	=1	=1	=1
*2\right	*	*	*2\right	*	*	*2\right	*	*	*2\right	*	*
!LO:TX:t=P:problem:all\right:global	!	!	!LO:TX:t=P:problem:all\right:global	!	!	!LO:TX:t=P:problem:all\right:global	!	!	!LO:TX:t=P:problem:all\right:global	!	!
!LO:TX:a:t=9.)	!	!	!LO:TX:a:t=9.)	!	!	!LO:TX:a:t=9.)	!	!	!LO:TX:a:t=9.)	!	!
!LO:TX:t=P:problem:oznaczenie numeru utworu: "9.)" przed kluczem	!	!	!LO:TX:t=P:problem:oznaczenie numeru utworu: "9.)" przed kluczem	!	!	!LO:TX:t=P:problem:oznaczenie numeru utworu: "9.)" przed kluczem	!	!	!LO:TX:t=P:problem:oznaczenie numeru utworu: "9.)" przed kluczem	!	!
!	!	!	!	!	!	!	!	!	!LO:TX:t=P:problem:znaki przykluczowe:f#, cc#, g#, dd#	!	!
2E\	To-	U	2G#/	To-	U	2e\	To-	U	2e/	To-	U
4E\	-bie	cie-	4B\	-bie	cie-	4e\	-bie	cie-	4g#\	-bie	cie-
4C#/	nad	-bie	4A\	nad	-bie	4e\	nad	-bie	4a\	nad	-bie
=2	=2	=2	=2	=2	=2	=2	=2	=2	=2	=2	=2
(>4BB/	po-	je-	2G#/	po-	je-	2e\	po-	je-	2b\	po-	je-
4E\)	.	.	.	.	.	.	.	.	.	.	.
4G#\	-mysł	-dnej	4B\	-mysł	-dnej	4e\	-mysł	-dnej	4b\	-mysł	-dnej
4r	.	.	4r	.	.	4r	.	.	4r	.	.
=3	=3	=3	=3	=3	=3	=3	=3	=3	=3	=3	=3
4F#\	dow-	nie-	4A#X\	do-	nie-	4e\	dow-	nie-	4cc#\	do-	nie-
4F#\	-cip	-bies-	4B\	-wcip	-bies-	4d#\	-cip	-bies-	4dd#\	-wcip	-bies-
4E\	i	-kie	4B\	i	-kie	4g#\	i	-kie	4ee\	i	-kie
4F#\	wy-	są	4B\	wy-	są	4f#\	wy-	są	4dd#\	wy-	są
=4	=4	=4	=4	=4	=4	=4	=4	=4	=4	=4	=4
2F#\	-mo-	da-	2A#X\	-mo-	da-	(>4f#\	-mo-	da-	2cc#\	-mo-	da-
.	.	.	.	.	.	4e\)	.	.	.	.	.
4BB/	-wę	-ry	4B\	-we	-ry	4d#\	-we	-ry	4b\	-we	-ry
4r	.	.	4r	.	.	4r	.	.	4r	.	.
!LO:LB:g=original	!	!	!LO:LB:g=original	!	!	!LO:LB:g=original	!	!	!LO:LB:g=original	!	!
=5	=5	=5	=5	=5	=5	=5	=5	=5	=5	=5	=5
2E\	wzna-	kto-	2G#/	wzna-	kto-	2e\	wzna-	kto-	2b\	wzna-	kto-
4E\	-wia-	-re-	4G#/	-wia-	-re-	4e\	-wia-	-re-	4b\	-wia-	-re-
4G#\	-my	-mi	4B\	-my	-mi	4e\	-my	-mi	4b\	-my	-mi
=6	=6	=6	=6	=6	=6	=6	=6	=6	=6	=6	=6
2A\	Pan-	cie	2A\	Pan-	cie	2e\	Pan-	cię	2cc#\	Pan-	cię
4G#\	-no	Bog	4B\	-no	Bóg	4e\	-no	Bóg	4b\	-no	Bog
4r	.	.	4r	.	.	4r	.	.	4r	.	.
=7	=7	=7	=7	=7	=7	=7	=7	=7	=7	=7	=7
4E\	rzecz	ob-	4B\	rzecz	ob-	4e\	rzecz	ob-	4g#\	rzecz	ob-
4C#/	Ga-	-da-	4A\	Ga-	-da-	4e\	Ga-	-da-	4a\	Ga-	-da-
4.BB/	-bri-	-rzył	4.G#/	-bri-	-rzył	4.e\	-bri-	-rzył	4.b\	-bri-	-rzył
8D#\	-e-	bez	8B\	-e-	bez	8f#\	-e-	bez	8a\	-e-	bez
=8	=8	=8	=8	=8	=8	=8	=8	=8	=8	=8	=8
(>4E\	-lo-	mia-	2B\	-lo-	mia-	(>4e\	-lo-	mia-	(>4g#\	-lo-	mia-
4A\)	.	.	.	.	.	4d#\)	.	.	4f#\)	.	.
4G#\	-we	-ry	4B\	-we	-ry	4e\	-we	-ry	4e/	-we	-ry
4r	.	.	4r	.	.	4r	.	.	4r	.	.
!LO:LB:g=original	!	!	!LO:LB:g=original	!	!	!LO:LB:g=original	!	!	!LO:LB:g=original	!	!
=9	=9	=9	=9	=9	=9	=9	=9	=9	=9	=9	=9
2G#\	Kto-	Tys	2B\	Kto-	Tys	2e\	Kto-	Tyś	2b\	Kto-	Tyś
(>8E\L	-raś	na-	4B\	-ras	na-	4e\	-raś	na-	4g#\	-raś	na-
8Dn\J)	.	.	.	.	.	.	.	.	.	.	.
4C#/	od	-peł-	4A\	od	-peł-	4e\	od	-peł-	4a\	od	-peł-
=10	=10	=10	=10	=10	=10	=10	=10	=10	=10	=10	=10
(>4BB\	nie-	-nio-	2G#/	nie-	-nio-	2e\	nie-	-nio-	2b\	nie-	-nio-
4E\)	.	.	.	.	.	.	.	.	.	.	.
4E\	-go	-na	4G#/	-go	-na	4e\	-go	-na	4b\	-go	-na
4r	.	.	4r	.	.	4r	.	.	4r	.	.
=11	=11	=11	=11	=11	=11	=11	=11	=11	=11	=11	=11
4F#\	w te	ła-	4A\	w te	ła-	4c#\	w te	ła-	4a\	w te	ła-
4E#X\	sło-	-ską	4B\	sło-	-ską	4c#\	sło-	-ską	4g#\	sło-	-ską
4F#\	-wa	po-	4A\	-wa	po-	4c#\	-wa	po-	4f#/	-wa	po-
4AA/	u-	-żą-	4F#/	u-	-żą-	4c#\	u-	-żą-	4a\	u-	-żą-
=12	=12	=12	=12	=12	=12	=12	=12	=12	=12	=12	=12
2BB/	-czczo-	-da-	(>4B\	-czczo-	-da-	(>4e\	-czczo-	-da-	(>4g#\	-czczo-	-da-
.	.	.	4A\)	.	.	4d#\)	.	.	4f#\)	.	.
4E\	-na	-ną	4G#/	-na	-ną	4e\	-na	-ną	4e/	-na	-ną
4r	.	.	4r	.	.	4r	.	.	4r	.	.
!LO:LB:g=original	!	!	!LO:LB:g=original	!	!	!LO:LB:g=original	!	!	!LO:LB:g=original	!	!
=13	=13	=13	=13	=13	=13	=13	=13	=13	=13	=13	=13
2C#/	bądz	od	2G#/	bądz	od	2e\	bądz	od	2e/	bądz	od
!LO:TX:t=P:problem:mixed beam	!	!	!	!	!	!	!	!	!	!	!
(>8AA/L	po-	Bo-	4A\	po-	Bo-	4c#\	po-	Bo-	4f#/	po-	Bo-
8A\J)	.	.	.	.	.	.	.	.	.	.	.
4E#X\	-zdro-	-ga	4B\	-zdro-	-ga	4c#\	-zdro-	-ga	4g#\	-zdro-	-ga
=14	=14	=14	=14	=14	=14	=14	=14	=14	=14	=14	=14
(>4.F#\	-wio-	da-	(>4.A\	-wio-	da-	(>2.c#\	-wio-	da-	(>4.a\	-wio-	da-
8E#X\	.	.	8B\	.	.	.	.	.	8g#\	.	.
4F#\	.	.	2A\)	.	.	.	.	.	2f#\)	.	.
4BB\)	.	.	.	.	.	4d#\)	.	.	.	.	.
=15	=15	=15	=15	=15	=15	=15	=15	=15	=15	=15	=15
4E\	-na	-ną	4G#/	-na	-ną	4e\	-na	-ną	4e/	-na	-ną
4r	.	.	4r	.	.	4r	.	.	4r	.	.
2r	.	.	2r	.	.	2r	.	.	2r	.	.
==	==	==	==	==	==	==	==	==	==	==	==
*-	*-	*-	*-	*-	*-	*-	*-	*-	*-	*-	*-
!!!system-decoration: [(s1,s2,s3,s4)]
!!!RDF**kern: > = above
!!!RDF**kern: < = below
!!!EED: Mateusz Mrugas
!!!EST: 2021-01-19
!!!ENC: Tomasz Grochalski
!!!END: 2021-01-10
